src/assets/images/github.svg

<?xml version="1.0" encoding="UTF-8"?>
<svg width="26px" height="26px" viewBox="0 0 26 26" version="1.1" xmlns="http://www.w3.org/2000/svg" xmlns:xlink="http://www.w3.org/1999/xlink">
    <!-- Generator: Sketch 41.2 (35397) - http://www.bohemiancoding.com/sketch -->
    <title>github</title>
    <desc>Created with Sketch.</desc>
    <defs></defs>
    <g id="Page-1" stroke="none" stroke-width="1" fill="none" fill-rule="evenodd">
        <g id="About" transform="translate(-955.000000, -733.000000)" fill="#E3E3E3">
            <g id="github" transform="translate(955.000000, 733.000000)">
                <path d="M12.857158,0.249942 C19.955381,0.249942 25.714316,6.008877 25.714316,13.1071 C25.714316,18.78233 22.031276,23.603764 16.925243,25.311356 C16.272341,25.428543 16.037966,25.026757 16.037966,24.691935 C16.037966,24.273408 16.054707,22.883897 16.054707,21.159565 C16.054707,19.954206 15.65292,19.184116 15.18417,18.78233 C18.046897,18.464249 21.060293,17.376078 21.060293,12.437456 C21.060293,11.031205 20.55806,9.892811 19.737747,8.988792 C19.871675,8.65397 20.306944,7.348165 19.603818,5.573609 C18.532388,5.238787 16.071448,6.896155 16.071448,6.896155 C15.050241,6.611557 13.945329,6.460887 12.857158,6.460887 C11.768987,6.460887 10.664075,6.611557 9.642869,6.896155 C9.642869,6.896155 7.181928,5.238787 6.110498,5.573609 C5.407373,7.348165 5.842641,8.65397 5.97657,8.988792 C5.156256,9.892811 4.654023,11.031205 4.654023,12.437456 C4.654023,17.359337 7.650679,18.464249 10.513405,18.78233 C10.145101,19.117152 9.81028,19.686349 9.693092,20.506662 C8.956484,20.841484 7.081482,21.410681 5.959829,19.435233 C5.256703,18.213133 3.98438,18.112686 3.98438,18.112686 C2.728798,18.095945 3.900674,18.899518 3.900674,18.899518 C4.737729,19.284563 5.323667,20.77452 5.323667,20.77452 C6.077016,23.068049 9.65961,22.297959 9.65961,22.297959 C9.65961,23.369389 9.676351,24.373855 9.676351,24.691935 C9.676351,25.026757 9.441976,25.428543 8.789073,25.311356 C3.68304,23.603764 0,18.78233 0,13.1071 C0,6.008877 5.758935,0.249942 12.857158,0.249942 Z M4.871658,18.715366 C4.838175,18.78233 4.737729,18.799071 4.654023,18.748848 C4.553577,18.698625 4.503354,18.614919 4.536836,18.547955 C4.570318,18.497731 4.654023,18.48099 4.75447,18.514473 C4.854917,18.564696 4.90514,18.648401 4.871658,18.715366 Z M5.390631,19.284563 C5.323667,19.351527 5.206479,19.318045 5.122774,19.23434 C5.039069,19.133893 5.022327,19.016705 5.089292,18.966482 C5.156256,18.899518 5.273444,18.933 5.357149,19.016705 C5.440855,19.117152 5.457596,19.23434 5.390631,19.284563 Z M5.892864,20.037912 C5.8259,20.088135 5.691971,20.037912 5.608266,19.920724 C5.52456,19.803537 5.52456,19.669608 5.608266,19.619385 C5.691971,19.55242 5.8259,19.602644 5.892864,19.719831 C5.97657,19.837019 5.97657,19.970948 5.892864,20.037912 Z M6.59599,20.741038 C6.529026,20.824743 6.378356,20.808002 6.261168,20.690814 C6.143981,20.590368 6.110498,20.439698 6.194204,20.372734 C6.261168,20.289028 6.411838,20.305769 6.529026,20.422957 C6.629472,20.523404 6.662954,20.674073 6.59599,20.741038 Z M7.550232,21.159565 C7.51675,21.260012 7.36608,21.310235 7.232151,21.260012 C7.081482,21.226529 6.981035,21.109342 7.014517,21.008895 C7.047999,20.908449 7.198669,20.858225 7.332598,20.891708 C7.483268,20.941931 7.583714,21.059118 7.550232,21.159565 Z M8.604921,21.24327 C8.604921,21.343717 8.487733,21.427422 8.337064,21.427422 C8.169653,21.444164 8.052465,21.360458 8.052465,21.24327 C8.052465,21.142824 8.169653,21.059118 8.320322,21.059118 C8.470992,21.042377 8.604921,21.126083 8.604921,21.24327 Z M9.575904,21.07586 C9.592645,21.176306 9.492199,21.276753 9.341529,21.310235 C9.190859,21.343717 9.05693,21.276753 9.040189,21.176306 C9.023448,21.059118 9.123895,20.958672 9.274565,20.92519 C9.425234,20.908449 9.559163,20.975413 9.575904,21.07586 Z" id="Shape"></path>
            </g>
        </g>
    </g>
</svg>

<svg width="26" height="26" viewBox="0 0 26 26" xmlns="http://www.w3.org/2000/svg"><title>github</title><path d="M12.857.25c7.098 0 12.857 5.76 12.857 12.857 0 5.675-3.683 10.497-8.79 12.204-.652.12-.886-.283-.886-.618 0-.42.017-1.808.017-3.532 0-1.206-.402-1.976-.87-2.378 2.862-.318 5.875-1.406 5.875-6.345 0-1.406-.502-2.544-1.322-3.448.134-.336.57-1.642-.134-3.416-1.072-.335-3.533 1.322-3.533 1.322-1.02-.284-2.125-.435-3.213-.435s-2.193.152-3.214.436c0 0-2.46-1.657-3.533-1.322-.703 1.774-.267 3.08-.133 3.415-.82.903-1.323 2.04-1.323 3.447 0 4.922 2.997 6.027 5.86 6.345-.37.335-.704.904-.82 1.725-.738.334-2.613.904-3.734-1.072-.703-1.222-1.976-1.322-1.976-1.322-1.255-.017-.083.787-.083.787.838.385 1.424 1.875 1.424 1.875.753 2.293 4.336 1.523 4.336 1.523 0 1.07.016 2.076.016 2.394 0 .335-.234.737-.887.62C3.682 23.603 0 18.78 0 13.106 0 6.01 5.76.25 12.857.25zM4.872 18.715c-.034.067-.134.084-.218.034-.1-.05-.15-.135-.117-.202.033-.05.117-.067.217-.034.1.05.15.134.118.2zm.52.57c-.068.067-.186.033-.27-.05-.083-.1-.1-.218-.033-.27.066-.065.183-.032.267.052.084.1.1.217.034.268zm.5.753c-.066.05-.2 0-.284-.117-.083-.116-.083-.25 0-.3.084-.068.218-.017.285.1.084.117.084.25 0 .318zm.704.703c-.067.085-.218.068-.335-.05-.116-.1-.15-.25-.066-.317.067-.084.218-.067.335.05.1.1.133.25.066.318zm.954.42c-.033.1-.184.15-.318.1-.15-.033-.25-.15-.217-.25.033-.102.184-.152.318-.118.15.05.25.167.217.268zm1.055.083c0 .1-.117.184-.268.184-.167.017-.285-.067-.285-.184 0-.1.118-.184.268-.184.15-.018.285.066.285.183zm.97-.167c.018.1-.083.2-.233.234-.15.034-.285-.033-.302-.134-.017-.117.084-.217.235-.25.15-.018.284.05.3.15z" fill="#E3E3E3" fill-rule="evenodd"/></svg>
